; generated by Slic3r 1.2.9 on 2023-12-13 at 08:46:46

; external perimeters extrusion width = 0.40mm
; perimeters extrusion width = 0.40mm
; infill extrusion width = 0.40mm
; solid infill extrusion width = 0.40mm
; top infill extrusion width = 0.40mm

M107
M190 S80 ; set bed temperature
M104 S215 T1 ; set temperature
G28 ; home all axes
G1 Z5 F5000 ; lift nozzle

M109 S215 T1 ; wait for temperature to be reached
G21 ; set units to millimeters
G90 ; use absolute coordinates
M82 ; use absolute distances for extrusion
G92 E0
T1
G92 E0
M109 S220 ; wait for temperature to be reached
G1 Z0.200 F9000.000
G1 X84.423 Y136.937 F9000.000
M204 S1000
G1 X87.500 Y136.143 E0.09997 F900.000
G1 X207.500 Y136.143 E3.87559
G1 X209.711 Y136.540 E3.94627
G1 X211.646 Y137.681 E4.01694 F900.000
G1 X213.063 Y139.423 E4.08762
G1 X213.857 Y142.500 E4.18759
G1 X213.857 Y152.500 E4.50222
G1 X213.460 Y154.711 E4.57290
G1 X212.319 Y156.646 E4.64357
G1 X210.577 Y158.063 E4.71425
G1 X207.500 Y158.857 E4.81422
G1 X87.500 Y158.857 E8.58984
G1 X85.289 Y158.460 E8.66052
G1 X83.354 Y157.319 E8.73119
G1 X81.937 Y155.577 E8.80187
G1 X81.143 Y152.500 E8.90184
G1 X81.143 Y142.500 E9.21647
G1 X81.540 Y140.289 E9.28715
G1 X82.681 Y138.354 E9.35782
G1 X84.377 Y136.975 E9.42661
M204 S250
G92 E0
G1 X85.799 Y138.394 F9000.000
M204 S1000
G1 X120.881 Y138.394 E1.10379 F900.000
G1 X121.609 Y138.526 E1.12709
G1 X124.652 Y139.669 E1.22937 F900.000
G1 X127.225 Y140.344 E1.31305
G1 X129.853 Y140.752 E1.39673
G1 X132.610 Y140.894 E1.48360
G1 X162.390 Y140.894 E2.42057
G1 X165.147 Y140.752 E2.50744
G1 X167.793 Y140.341 E2.59170
G1 X170.348 Y139.669 E2.67480
G1 X173.391 Y138.526 E2.77707
G1 X174.119 Y138.394 E2.80037
G1 X209.201 Y138.394 E3.90417
G1 X211.606 Y140.799 E4.01120
G1 X211.606 Y154.201 E4.43287
G1 X209.201 Y156.606 E4.53991
G1 X174.119 Y156.606 E5.64370
G1 X173.391 Y156.474 E5.66700
G1 X170.348 Y155.331 E5.76927
G1 X167.793 Y154.659 E5.85238
G1 X165.147 Y154.248 E5.93664
G1 X162.390 Y154.106 E6.02350
G1 X132.610 Y154.106 E6.96048
G1 X129.853 Y154.248 E7.04734
G1 X127.225 Y154.656 E7.13102
G1 X124.652 Y155.331 E7.21471
G1 X121.609 Y156.474 E7.31698
G1 X120.881 Y156.606 E7.34028
G1 X85.799 Y156.606 E8.44407
G1 X83.394 Y154.201 E8.55111
G1 X83.394 Y140.799 E8.97278
G1 X85.757 Y138.436 E9.07792
M204 S250
G1 X85.947 Y138.751 F9000.000
M204 S1000
G1 X120.849 Y138.751 E10.17605 F900.000
G1 X121.514 Y138.872 E10.19732 F900.000
G1 X124.544 Y140.010 E10.29916
G1 X127.134 Y140.691 E10.38342
G1 X129.816 Y141.108 E10.46884
G1 X132.601 Y141.251 E10.55657
G1 X162.399 Y141.251 E11.49412
G1 X165.184 Y141.108 E11.58185
G1 X167.848 Y140.695 E11.66669
G1 X170.456 Y140.010 E11.75153
G1 X173.486 Y138.872 E11.85337
G1 X174.151 Y138.751 E11.87464
G1 X209.053 Y138.751 E12.97277
G1 X211.249 Y140.947 E13.07049
G1 X211.249 Y154.053 E13.48286
G1 X209.053 Y156.249 E13.58058
G1 X174.151 Y156.249 E14.67871
G1 X173.486 Y156.128 E14.69999
G1 X170.456 Y154.990 E14.80182
G1 X167.866 Y154.309 E14.88608
G1 X165.184 Y153.892 E14.97150
G1 X162.399 Y153.749 E15.05923
G1 X132.601 Y153.749 E15.99678
G1 X129.816 Y153.892 E16.08451
G1 X127.152 Y154.305 E16.16935
G1 X124.544 Y154.990 E16.25419
G1 X121.514 Y156.128 E16.35602
G1 X120.849 Y156.249 E16.37730
G1 X85.947 Y156.249 E17.47543
G1 X83.751 Y154.053 E17.57315
G1 X83.751 Y140.947 E17.98552
G1 X85.905 Y138.793 E18.08136
M204 S250
G1 X86.095 Y139.108 F9000.000
M204 S1000
G1 X120.816 Y139.108 E19.17381 F900.000
G1 X121.418 Y139.217 E19.19306
G1 X124.435 Y140.351 E19.29446 F900.000
G1 X127.079 Y141.045 E19.38046
G1 X129.780 Y141.463 E19.46645
G1 X132.592 Y141.608 E19.55505
G1 X162.408 Y141.608 E20.49318
G1 X165.220 Y141.463 E20.58178
G1 X167.939 Y141.041 E20.66835
G1 X170.565 Y140.351 E20.75377
G1 X173.582 Y139.217 E20.85517
G1 X174.184 Y139.108 E20.87442
G1 X208.905 Y139.108 E21.96688
G1 X210.892 Y141.095 E22.05530
G1 X210.892 Y153.905 E22.45835
G1 X208.905 Y155.892 E22.54677
G1 X174.184 Y155.892 E23.63923
G1 X173.582 Y155.783 E23.65848
G1 X170.565 Y154.649 E23.75988
G1 X167.939 Y153.959 E23.84530
G1 X165.220 Y153.537 E23.93187
G1 X162.408 Y153.392 E24.02047
G1 X132.592 Y153.392 E24.95860
G1 X129.780 Y153.537 E25.04719
G1 X127.079 Y153.955 E25.13319
G1 X124.435 Y154.649 E25.21918
G1 X121.418 Y155.783 E25.32058
G1 X120.816 Y155.892 E25.33983
G1 X86.095 Y155.892 E26.43229
G1 X84.108 Y153.905 E26.52071
G1 X84.108 Y141.095 E26.92377
G1 X86.052 Y139.150 E27.01030
M204 S250
G1 X86.243 Y139.465 F9000.000
M204 S1000
G1 X120.784 Y139.465 E28.09709 F900.000
G1 X121.323 Y139.563 E28.11431 F900.000
G1 X124.327 Y140.692 E28.21528
G1 X126.988 Y141.391 E28.30185
G1 X129.743 Y141.819 E28.38958
G1 X132.583 Y141.965 E28.47904
G1 X162.417 Y141.965 E29.41775
G1 X165.257 Y141.819 E29.50722
G1 X167.994 Y141.395 E29.59437
G1 X170.673 Y140.692 E29.68152
G1 X173.677 Y139.563 E29.78248
G1 X174.216 Y139.465 E29.79971
G1 X208.757 Y139.465 E30.88650
G1 X210.535 Y141.243 E30.96561
G1 X210.535 Y153.757 E31.35936
G1 X208.757 Y155.535 E31.43847
G1 X174.216 Y155.535 E32.52526
G1 X173.677 Y155.437 E32.54249
G1 X170.673 Y154.308 E32.64345
G1 X167.994 Y153.605 E32.73060
G1 X165.257 Y153.181 E32.81775
G1 X162.417 Y153.035 E32.90721
G1 X132.583 Y153.035 E33.84592
G1 X129.743 Y153.181 E33.93539
G1 X126.988 Y153.609 E34.02311
G1 X124.327 Y154.308 E34.10969
G1 X121.323 Y155.437 E34.21065
G1 X120.784 Y155.535 E34.22788
G1 X86.243 Y155.535 E35.31467
G1 X84.465 Y153.757 E35.39378
G1 X84.465 Y141.243 E35.78753
G1 X86.200 Y139.507 E35.86475
M204 S250
G1 X86.391 Y139.822 F9000.000
M204 S1000
G1 X120.752 Y139.822 E36.94588 F900.000
G1 X121.227 Y139.908 E36.96107
G1 X124.218 Y141.032 E37.06160 F900.000
G1 X126.933 Y141.745 E37.14991
G1 X129.706 Y142.175 E37.23822
G1 X132.573 Y142.322 E37.32855
G1 X162.427 Y142.322 E38.26783
G1 X165.294 Y142.175 E38.35816
G1 X168.085 Y141.741 E38.44705
G1 X170.782 Y141.032 E38.53478
G1 X173.773 Y139.908 E38.63531
G1 X174.248 Y139.822 E38.65050
G1 X208.609 Y139.822 E39.73163
G1 X210.178 Y141.391 E39.80143
G1 X210.178 Y153.609 E40.18587
G1 X208.609 Y155.178 E40.25568
G1 X174.248 Y155.178 E41.33680
G1 X173.773 Y155.092 E41.35200
G1 X170.782 Y153.968 E41.45253
G1 X168.085 Y153.259 E41.54026
G1 X165.294 Y152.825 E41.62914
G1 X162.427 Y152.678 E41.71947
G1 X132.573 Y152.678 E42.65876
G1 X129.706 Y152.825 E42.74909
G1 X126.915 Y153.259 E42.83797
G1 X124.218 Y153.968 E42.92570
G1 X121.227 Y155.092 E43.02623
G1 X120.752 Y155.178 E43.04143
G1 X86.391 Y155.178 E44.12255
G1 X84.822 Y153.609 E44.19236
G1 X84.822 Y141.391 E44.57680
G1 X86.348 Y139.864 E44.64472
M204 S250
G1 X86.539 Y140.179 F9000.000
M204 S1000
G1 X120.720 Y140.179 E45.72017 F900.000
G1 X121.132 Y140.254 E45.73335 F900.000
G1 X124.110 Y141.373 E45.83344
G1 X126.842 Y142.091 E45.92232
G1 X129.670 Y142.530 E46.01236
G1 X132.564 Y142.679 E46.10356
G1 X162.436 Y142.679 E47.04342
G1 X165.330 Y142.530 E47.13462
G1 X168.158 Y142.091 E47.22466
G1 X170.890 Y141.373 E47.31355
G1 X173.868 Y140.254 E47.41364
G1 X174.280 Y140.179 E47.42681
G1 X208.461 Y140.179 E48.50227
G1 X209.821 Y141.539 E48.56277
G1 X209.821 Y153.461 E48.93790
G1 X208.461 Y154.821 E48.99840
G1 X174.280 Y154.821 E50.07386
G1 X173.868 Y154.746 E50.08703
G1 X170.890 Y153.627 E50.18712
G1 X168.158 Y152.909 E50.27600
G1 X165.330 Y152.470 E50.36604
G1 X162.436 Y152.321 E50.45724
G1 X132.564 Y152.321 E51.39710
G1 X129.670 Y152.470 E51.48830
G1 X126.842 Y152.909 E51.57834
G1 X124.110 Y153.627 E51.66723
G1 X121.132 Y154.746 E51.76732
G1 X120.720 Y154.821 E51.78049
G1 X86.539 Y154.821 E52.85595
G1 X85.179 Y153.461 E52.91645
G1 X85.179 Y141.539 E53.29158
G1 X86.496 Y140.221 E53.35019
M204 S250
G1 X86.687 Y140.536 F9000.000
M204 S1000
G1 X120.688 Y140.536 E54.41998 F900.000
G1 X121.036 Y140.599 E54.43113
G1 X124.001 Y141.714 E54.53078 F900.000
G1 X126.787 Y142.445 E54.62140
G1 X129.633 Y142.886 E54.71202
G1 X132.555 Y143.036 E54.80408
G1 X162.445 Y143.036 E55.74452
G1 X165.367 Y142.886 E55.83659
G1 X168.231 Y142.441 E55.92778
G1 X170.999 Y141.714 E56.01782
G1 X173.964 Y140.599 E56.11748
G1 X174.312 Y140.536 E56.12863
G1 X208.313 Y140.536 E57.19842
G1 X209.464 Y141.687 E57.24961
G1 X209.464 Y153.313 E57.61544
G1 X208.313 Y154.464 E57.66663
G1 X174.312 Y154.464 E58.73642
G1 X173.964 Y154.401 E58.74756
G1 X170.999 Y153.286 E58.84722
G1 X168.231 Y152.559 E58.93726
G1 X165.367 Y152.114 E59.02845
G1 X162.445 Y151.964 E59.12052
G1 X132.555 Y151.964 E60.06096
G1 X129.633 Y152.114 E60.15303
G1 X126.769 Y152.559 E60.24422
G1 X124.001 Y153.286 E60.33426
G1 X121.036 Y154.401 E60.43392
G1 X120.688 Y154.464 E60.44506
G1 X86.687 Y154.464 E61.51486
G1 X85.536 Y153.313 E61.56605
G1 X85.536 Y141.687 E61.93187
G1 X86.644 Y140.578 E61.98117
M204 S250
G1 X86.834 Y140.893 F9000.000
M204 S1000
G1 X120.655 Y140.893 E63.04530 F900.000
G1 X120.940 Y140.945 E63.05442 F900.000
G1 X123.892 Y142.054 E63.15364
G1 X126.696 Y142.791 E63.24484
G1 X129.596 Y143.242 E63.33719
G1 X132.546 Y143.393 E63.43012
G1 X162.454 Y143.393 E64.37114
G1 X165.404 Y143.242 E64.46407
G1 X168.304 Y142.791 E64.55642
G1 X171.108 Y142.054 E64.64761
G1 X174.060 Y140.945 E64.74684
G1 X174.345 Y140.893 E64.75596
G1 X208.166 Y140.893 E65.82008
G1 X209.107 Y141.834 E65.86196
G1 X209.107 Y153.166 E66.21848
G1 X208.166 Y154.107 E66.26036
G1 X174.345 Y154.107 E67.32449
G1 X174.060 Y154.055 E67.33361
G1 X171.108 Y152.946 E67.43283
G1 X168.304 Y152.209 E67.52403
G1 X165.404 Y151.758 E67.61638
G1 X162.454 Y151.607 E67.70931
G1 X132.546 Y151.607 E68.65033
G1 X129.596 Y151.758 E68.74326
G1 X126.696 Y152.209 E68.83561
G1 X123.892 Y152.946 E68.92681
G1 X120.940 Y154.055 E69.02603
G1 X120.655 Y154.107 E69.03515
G1 X86.834 Y154.107 E70.09927
G1 X85.893 Y153.166 E70.14115
G1 X85.893 Y141.834 E70.49767
G1 X86.792 Y140.936 E70.53767
M204 S250
G1 X86.982 Y141.250 F9000.000
M204 S1000
G1 X120.623 Y141.250 E71.59613 F900.000
G1 X120.845 Y141.291 E71.60322
G1 X123.784 Y142.395 E71.70201 F900.000
G1 X126.641 Y143.145 E71.79493
G1 X129.559 Y143.597 E71.88786
G1 X132.537 Y143.750 E71.98166
G1 X162.463 Y143.750 E72.92326
G1 X165.441 Y143.597 E73.01706
G1 X168.377 Y143.141 E73.11056
G1 X171.216 Y142.395 E73.20291
G1 X174.155 Y141.291 E73.30170
G1 X174.377 Y141.250 E73.30879
G1 X208.018 Y141.250 E74.36725
G1 X208.750 Y141.982 E74.39983
G1 X208.750 Y153.018 E74.74704
G1 X208.018 Y153.750 E74.77961
G1 X174.377 Y153.750 E75.83807
G1 X174.155 Y153.709 E75.84516
G1 X171.216 Y152.605 E75.94395
G1 X168.377 Y151.859 E76.03630
G1 X165.441 Y151.403 E76.12981
G1 X162.463 Y151.250 E76.22361
G1 X132.537 Y151.250 E77.16520
G1 X129.559 Y151.403 E77.25900
G1 X126.623 Y151.859 E77.35251
G1 X123.784 Y152.605 E77.44486
G1 X120.845 Y153.709 E77.54365
G1 X120.623 Y153.750 E77.55074
G1 X86.982 Y153.750 E78.60920
G1 X86.250 Y153.018 E78.64177
G1 X86.250 Y141.982 E78.98898
G1 X86.940 Y141.293 E79.01967
M204 S250
G1 X87.130 Y141.607 F9000.000
M204 S1000
G1 X120.591 Y141.607 E80.07246 F900.000
G1 X120.749 Y141.636 E80.07753 F900.000
G1 X123.675 Y142.736 E80.17588
G1 X126.550 Y143.491 E80.26939
G1 X129.523 Y143.953 E80.36405
G1 X132.528 Y144.107 E80.45872
G1 X162.472 Y144.107 E81.40089
G1 X165.477 Y143.953 E81.49555
G1 X168.450 Y143.491 E81.59022
G1 X171.325 Y142.736 E81.68372
G1 X174.251 Y141.636 E81.78208
G1 X174.409 Y141.607 E81.78714
G1 X207.870 Y141.607 E82.83993
G1 X208.393 Y142.130 E82.86320
G1 X208.393 Y152.870 E83.20111
G1 X207.870 Y153.393 E83.22437
G1 X174.409 Y153.393 E84.27716
G1 X174.251 Y153.364 E84.28223
G1 X171.325 Y152.264 E84.38058
G1 X168.450 Y151.509 E84.47409
G1 X165.477 Y151.047 E84.56875
G1 X162.472 Y150.893 E84.66342
G1 X132.528 Y150.893 E85.60559
G1 X129.523 Y151.047 E85.70025
G1 X126.550 Y151.509 E85.79492
G1 X123.675 Y152.264 E85.88843
G1 X120.749 Y153.364 E85.98678
G1 X120.591 Y153.393 E85.99184
G1 X87.130 Y153.393 E87.04463
G1 X86.607 Y152.870 E87.06790
G1 X86.607 Y142.130 E87.40581
G1 X87.088 Y141.650 E87.42719
M204 S250
G1 X87.278 Y141.964 F9000.000
M204 S1000
G1 X120.559 Y141.964 E88.47431 F900.000
G1 X120.654 Y141.982 E88.47735
G1 X123.567 Y143.076 E88.57527 F900.000
G1 X126.495 Y143.845 E88.67051
G1 X129.486 Y144.309 E88.76575
G1 X132.518 Y144.464 E88.86128
G1 X162.482 Y144.464 E89.80403
G1 X165.532 Y144.307 E89.90014
G1 X168.523 Y143.841 E89.99538
G1 X171.433 Y143.076 E90.09004
G1 X174.346 Y141.982 E90.18796
G1 X174.441 Y141.964 E90.19100
G1 X207.722 Y141.964 E91.23812
G1 X208.036 Y142.278 E91.25209
G1 X208.036 Y152.722 E91.58068
G1 X207.722 Y153.036 E91.59464
G1 X174.441 Y153.036 E92.64177
G1 X174.346 Y153.018 E92.64481
G1 X171.433 Y151.924 E92.74272
G1 X168.523 Y151.159 E92.83739
G1 X165.514 Y150.691 E92.93321
G1 X162.482 Y150.536 E93.02874
G1 X132.518 Y150.536 E93.97149
G1 X129.468 Y150.693 E94.06760
G1 X126.477 Y151.159 E94.16284
G1 X123.567 Y151.924 E94.25750
G1 X120.654 Y153.018 E94.35542
G1 X120.559 Y153.036 E94.35846
G1 X87.278 Y153.036 E95.40558
G1 X86.964 Y152.722 E95.41954
G1 X86.964 Y142.278 E95.74814
G1 X87.236 Y142.007 E95.76021
M204 S250
G1 X87.426 Y142.321 F9000.000
M204 S1000
G1 X120.527 Y142.321 E96.80167 F900.000
G1 X123.398 Y143.401 E96.89818
G1 X126.404 Y144.191 E96.99598
G1 X129.431 Y144.662 E97.09237
G1 X132.509 Y144.821 E97.18935
G1 X162.491 Y144.821 E98.13268
G1 X165.551 Y144.664 E98.22908
G1 X168.596 Y144.191 E98.32605
G1 X171.542 Y143.417 E98.42187
G1 X174.473 Y142.321 E98.52035
G1 X207.574 Y142.321 E99.56180
G1 X207.679 Y142.426 E99.56646
G1 X207.679 Y152.574 E99.88575
G1 X207.574 Y152.679 E99.89040
G1 X174.473 Y152.679 E100.93186
G1 X171.542 Y151.583 E101.03034
G1 X168.596 Y150.809 E101.12616
G1 X165.551 Y150.336 E101.22313
G1 X162.491 Y150.179 E101.31953
G1 X132.509 Y150.179 E102.26286
G1 X129.431 Y150.338 E102.35983
G1 X126.404 Y150.809 E102.45623
G1 X123.458 Y151.583 E102.55205
G1 X120.527 Y152.679 E102.65053
G1 X87.426 Y152.679 E103.69198
G1 X87.321 Y152.574 E103.69664
G1 X87.321 Y142.426 E104.01593
G1 X87.384 Y142.364 E104.01869
M204 S250
G92 E0
G1 X207.300 Y152.300 F9000.000
M204 S1000
G1 X174.526 Y152.300 E1.03119 F900.000
G1 X171.665 Y151.224 E1.12734
G1 X168.665 Y150.436 E1.22497
G1 X165.599 Y149.959 E1.32259
G1 X162.505 Y149.800 E1.42005
G1 X132.495 Y149.800 E2.36428
G1 X129.401 Y149.959 E2.46175
G1 X126.261 Y150.455 E2.56179
G1 X123.335 Y151.224 E2.65698
G1 X120.474 Y152.300 E2.75313
G1 X87.700 Y152.300 E3.78432
G1 X87.700 Y142.700 E4.08637
G1 X120.474 Y142.700 E5.11756
G1 X123.335 Y143.776 E5.21371
G1 X126.335 Y144.564 E5.31134
G1 X129.401 Y145.041 E5.40896
G1 X132.495 Y145.200 E5.50642
G1 X162.505 Y145.200 E6.45065
G1 X165.599 Y145.041 E6.54811
G1 X168.665 Y144.564 E6.64573
G1 X171.665 Y143.776 E6.74336
G1 X174.526 Y142.700 E6.83951
G1 X207.300 Y142.700 E7.87070
G1 X207.300 Y152.240 E8.17086
M204 S250
G1 X207.057 Y143.135 F9000.000
M204 S1000
G1 X206.865 Y142.943 E8.17939 F900.000
G1 X206.360 Y142.943 E8.19530
G1 X207.057 Y143.640 E8.22632
G1 X207.057 Y144.146 E8.24223
G1 X205.854 Y142.943 E8.29576
G1 X205.349 Y142.943 E8.31167
G1 X207.057 Y144.651 E8.38769
G1 X207.057 Y145.156 E8.40360
G1 X204.844 Y142.943 E8.50212
G1 X204.338 Y142.943 E8.51803
G1 X207.057 Y145.661 E8.63905
G1 X207.057 Y146.167 E8.65496
G1 X203.833 Y142.943 E8.79847
G1 X203.328 Y142.943 E8.81438
G1 X207.057 Y146.672 E8.98040
G1 X207.057 Y147.177 E8.99631
G1 X202.823 Y142.943 E9.18483
G1 X202.317 Y142.943 E9.20073
G1 X207.057 Y147.683 E9.41175
G1 X207.057 Y148.188 E9.42766
G1 X201.812 Y142.943 E9.66117
G1 X201.307 Y142.943 E9.67708
G1 X207.057 Y148.693 E9.93309
G1 X207.057 Y149.199 E9.94900
G1 X200.801 Y142.943 E10.22751
G1 X200.296 Y142.943 E10.24342
G1 X207.057 Y149.704 E10.54443
